X: 1
T:Jackson's
R:reel
D:Frankie Gavin & Alec Finn
D:The Brass Fiddle
Z:id:hn-reel-353
M:C|
K:D
A2AB AF~F2|ADFA GE~E2|A3B AFDF|1 EDCD EFGB:|2 EDCD EFGE||
|:FD~D2 FDGE|FD~D2 FECE|FD~D2 FDGF|1 EDCD EFGE:|2 EDCD EFGA||
|:dffe fgfe|dcdB AFDA|ce~e2 ceec|B2dB ADFA|
dffe fgfe|dcdB AFDA|(3Bcd ef gecd|1 eddc d2AB:|2 eddc d2FG||
